X: 069
T: My ain kind deary
B: 204 Favourite Country Dances
N: Published by Straight & Skillern, London ca.1775
F: http://imslp.org/wiki/204_Favourite_Country_Dances_(Various) p.35 #69
Z: 2014 John Chambers <jc:trillian.mit.edu>
N: Shortened last notes in both strains to account for the pickup notes.
M: C|
L: 1/8
K: G
% - - - - - - - - - - - - - - - - - - - - - - - - -
c |\
GEDE G2AB | G/A/B AG AEEB |\
GEDE G2Gg | e2dc dGG :|\
|: g |\
e/e/e dB dGGB | A/A/A BG AEEA |
GEDE G2Gg | e/e/e dB dGGg |\
e/e/e gd ecgB | A/A/A BG AEEA |\
GEDE G2Gg | e/e/e dB dGG :|
% - - - - - - - - - - - - - - - - - - - - - - - - -
%%begintext align
%% Cast off 2 Cu. up again cross over 2 Cu. lead up &
%% cast off set corners & turn lead outsides
%%endtext

%%sep 1 1 500
%%sep 1 1 500
